X: 3
T: Trip to Athlone
T: aka Newport Lass
M: 6/8
L: 1/8
R: jig
O: Ireland
D: An Historic Recording of Irish Music
H: First recoreded by John McKenna as Newport Lass. later, by Paddy
H: O'Brien as Trip to Athlone
Z: Paul Stewart Cranford (P.S.C.), <http://www.cranfordpub.com>
K: D
|: ABA D2A | d=cA AGE | ABA ABc |  dAB cde  |
|  ABA D2A | d=cA AGE | GFG Ade |1 fdc dcB :|2 fdc d2  ||
|: e \
|  fed edc | Adc  Ade | fed efg |  ABc def  |
|  gfg age | d=cA AGE | GFG Ade |1 fdc d2  :|2 fdc dcB |]
